X: 22507
T: Lady Eligen's Courtship
R: reel
M: 4/4
K: Edorian
E2BE GBF2|GBEc ~d2cd|BEEF ~G3A|~F3E FGA=c|
B3E ~G2F2|GBEc ~d2cd|BGEF GABG|~F3E FGAd||
B3c d2cd|BABc dBA2|BGGF GABc|dBAF FEEA|
B3c d2cd|BABc dBAd|BG~G2 GABc|dBAF FEDF||

